source/images/logo-adrianmejia.svg

<?xml version="1.0" encoding="UTF-8" standalone="no"?>
<svg width="28px" height="33px" viewBox="0 0 28 33" version="1.1" xmlns="http://www.w3.org/2000/svg" xmlns:xlink="http://www.w3.org/1999/xlink">
    <!-- Generator: Sketch 39.1 (31720) - http://www.bohemiancoding.com/sketch -->
    <title>logo-adrianmejia</title>
    <desc>Created with Sketch.</desc>
    <defs>
        <path d="M27.0361328,19.7569557 L27.0361328,23.7082122 L24.9684742,24.9169922 L24.9684742,13.4367798 C24.9684742,13.1348373 24.8936794,12.8199351 24.7447548,12.4920733 C24.595664,12.165053 24.3716122,11.8444284 24.0734306,11.5295263 C23.7257182,11.1774283 23.3622159,10.9317002 22.9824249,10.7935203 C22.6044622,10.6546671 22.0604552,10.5858296 21.3518998,10.5858296 L13.132458,10.5858296 L0,10.5858296 L0,7.90251298 L6.75961494,3.95134064 L13.5180664,0 L20.2766841,3.95134064 L27.0361328,7.90268129 L27.0361328,11.8541902 L27.0361328,19.7569557 L27.0361328,19.7569557 Z" id="path-1"></path>
        <rect id="path-3" x="0" y="0" width="35" height="35"></rect>
    </defs>
    <g id="Logo-Final" stroke="none" stroke-width="1" fill="none" fill-rule="evenodd">
        <g id="logo-adrianmejia" transform="translate(-3.000000, -1.000000)">
            <g transform="translate(3.964844, 1.674805)">
                <path d="M22.2509766,26.4921439 L20.2469448,27.6655468 L13.4982951,31.6162109 L6.74964545,27.6655468 L0,23.7145462 L0,15.8132179 L0,12.7840445 L9.01606848,12.7840445 C9.36326803,12.7840445 9.63910247,12.8180367 9.84406969,12.8878721 C10.0490369,12.9568661 10.2254581,13.0728097 10.374329,13.2365442 C10.5233659,13.399774 10.6229452,13.5545898 10.6719049,13.6994772 C10.7198689,13.8398211 10.7454276,13.9943004 10.7469213,14.1634198 L10.7469213,14.1718337 L10.7469213,14.1800793 L10.7469213,14.7086407 L6.11134266,14.7086407 C5.49129605,14.7086407 4.94527,14.8913907 4.4732645,15.2562176 C3.8905601,15.7220112 3.54253073,16.3697135 3.43116797,17.1999975 C3.43116797,17.2501443 3.4185546,17.3320958 3.39399173,17.4450103 L3.39399173,17.6718492 C3.39399173,18.2502209 3.53074719,18.7601034 3.80309635,19.2006554 C4.07610938,19.6413756 4.46745571,19.987187 4.97597359,20.2390993 C5.38590804,20.4270659 5.82638012,20.5216382 6.29772176,20.5216382 L10.7469213,20.5216382 L13.4279258,20.5216382 L13.4279258,14.8780967 L13.4279258,14.5383433 L13.4279258,14.5216838 L13.4279258,14.5056974 L13.4279258,14.4898793 L13.4279258,12.7832031 L16.4798629,12.7832031 L16.4798629,20.5213016 L19.1607015,20.5213016 L19.1607015,12.7832031 L21.0039128,12.7832031 C21.4384101,12.7832031 21.7944058,13.0083592 22.0654273,13.4628782 C22.1910631,13.6744038 22.2509766,13.947519 22.2509766,14.2738102 L22.2509766,26.4921439 Z M10.7469213,16.5775369 L7.35907027,16.5775369 C7.04871504,16.5775369 6.77852343,16.6746334 6.54899333,16.8694994 C6.31913129,17.0650385 6.20478116,17.2881752 6.20478116,17.5399192 C6.20478116,17.7790423 6.30369652,17.9678503 6.50268899,18.1066797 L6.7441686,18.2377683 C6.95527654,18.3136617 7.12954017,18.3515243 7.26563177,18.3515243 L10.7470872,18.3515243 L10.7470872,16.5775369 L10.7469213,16.5775369 Z" id="Fill-1" fill="#7E8183"></path>
                <mask id="mask-2" fill="white">
                    <use xlink:href="#path-1"></use>
                </mask>
                <use id="Clip-4" fill="#0E557E" xlink:href="#path-1"></use>
            </g>
            <use id="Rectangle" xlink:href="#path-3"></use>
        </g>
    </g>
</svg>

<svg width="28" height="33" viewBox="0 0 28 33" xmlns="http://www.w3.org/2000/svg" xmlns:xlink="http://www.w3.org/1999/xlink"><title>logo-adrianmejia</title><defs><path d="M27.036 19.757v3.951l-2.068 1.209v-11.48c0-.302-.074-.617-.223-.945a3.569 3.569 0 0 0-.672-.962c-.347-.353-.71-.598-1.09-.736-.379-.14-.923-.208-1.631-.208H0V7.903L6.76 3.95 13.518 0l6.759 3.951 6.76 3.952v11.854z" id="a"/><path id="b" d="M0 0h35v35H0z"/></defs><g transform="translate(-3 -1)" fill="none" fill-rule="evenodd"><g transform="translate(3.965 1.675)"><path d="M22.251 26.492l-2.004 1.174-6.749 3.95-6.748-3.95L0 23.715V12.784h9.016c.347 0 .623.034.828.104.205.069.381.185.53.349.15.163.249.318.298.462.048.14.073.295.075.464v.546H6.11c-.62 0-1.166.182-1.638.547-.582.466-.93 1.114-1.042 1.944 0 .05-.012.132-.037.245v.227c0 .578.137 1.088.41 1.529.272.44.663.786 1.172 1.038.41.188.85.283 1.322.283h7.129v-7.739h3.053v7.738h2.68v-7.738h1.844c.434 0 .79.225 1.061.68.126.211.186.485.186.81v12.22zm-11.504-9.914H7.359c-.31 0-.58.097-.81.291-.23.196-.344.42-.344.67 0 .24.099.429.298.568l.241.13c.211.077.386.115.522.115h3.481v-1.774z" fill="#7E8183"/><use fill="#0E557E" xlink:href="#a"/></g><use xlink:href="#b"/></g></svg>
